X:5
T:Martin Wynne's #1
C:Martin Wynne (1914-98)
R:reel
D:Bothy Band: Out of the Wind, Into the Sun
Z:id:hn-reel-210
M:C|
K:D
AFFF G2FE|F2AF EFDB,|A,B,DE FEFG|ABde fedB|
AFFF G2FE|F2AF EFDB,|A,B,DE FEFG|1 ABde fddB:|2 ABde fddg||
|:faaf gfeg|fedf eBBB|dBAF DEFA|dfaf gfeg|
faaf gfeg|fedf eBBB|dBAF DEFB|1 ABde fddg:|2 ABde fdd2||
